apps/extension/src/ui/domains/Asset/currencyIcons/gbp.svg

<svg width="32" height="32" viewBox="0 0 32 32" fill="none" xmlns="http://www.w3.org/2000/svg">
<g clip-path="url(#clip0_954_3705)">
<path d="M16 32C24.8366 32 32 24.8366 32 16C32 7.16344 24.8366 0 16 0C7.16344 0 0 7.16344 0 16C0 24.8366 7.16344 32 16 32Z" fill="#F0F0F0"/>
<path d="M3.30758 6.25879C2.05077 7.89398 1.10308 9.77866 0.55127 11.8261H8.87489L3.30758 6.25879Z" fill="#0052B4"/>
<path d="M31.449 11.8262C30.8972 9.77879 29.9494 7.8941 28.6927 6.25891L23.1255 11.8262H31.449Z" fill="#0052B4"/>
<path d="M0.55127 20.174C1.10314 22.2213 2.05083 24.106 3.30758 25.7411L8.87471 20.174H0.55127Z" fill="#0052B4"/>
<path d="M25.7411 3.30752C24.1059 2.05071 22.2213 1.10302 20.1738 0.551147V8.87471L25.7411 3.30752Z" fill="#0052B4"/>
<path d="M6.25879 28.6924C7.89398 29.9492 9.77866 30.8969 11.826 31.4487V23.1252L6.25879 28.6924Z" fill="#0052B4"/>
<path d="M11.826 0.551147C9.7786 1.10302 7.89391 2.05071 6.25879 3.30746L11.826 8.87465V0.551147Z" fill="#0052B4"/>
<path d="M20.1738 31.4487C22.2212 30.8969 24.1059 29.9492 25.741 28.6924L20.1738 23.1252V31.4487Z" fill="#0052B4"/>
<path d="M23.1255 20.174L28.6927 25.7412C29.9494 24.1061 30.8972 22.2213 31.449 20.174H23.1255Z" fill="#0052B4"/>
<path d="M31.8646 13.9131H18.0871H18.087V0.135438C17.4038 0.0465 16.7073 0 16 0C15.2926 0 14.5962 0.0465 13.9131 0.135438V13.9129V13.913H0.135438C0.0465 14.5962 0 15.2927 0 16C0 16.7074 0.0465 17.4038 0.135438 18.0869H13.9129H13.913V31.8646C14.5962 31.9535 15.2926 32 16 32C16.7073 32 17.4038 31.9536 18.0869 31.8646V18.0871V18.087H31.8646C31.9535 17.4038 32 16.7074 32 16C32 15.2927 31.9535 14.5962 31.8646 13.9131Z" fill="#D80027"/>
<path d="M20.1738 20.174L27.3136 27.3138C27.642 26.9855 27.9552 26.6423 28.2541 26.2866L22.1415 20.174H20.1738V20.174Z" fill="#D80027"/>
<path d="M11.8258 20.174H11.8257L4.68604 27.3136C5.01429 27.642 5.35747 27.9553 5.71322 28.2541L11.8258 22.1414V20.174Z" fill="#D80027"/>
<path d="M11.8259 11.8262V11.8261L4.68611 4.68628C4.35773 5.01453 4.04448 5.35772 3.74561 5.71347L9.85829 11.8262L11.8259 11.8262Z" fill="#D80027"/>
<path d="M20.1738 11.8262L27.3136 4.68629C26.9854 4.35791 26.6422 4.04466 26.2865 3.74585L20.1738 9.85854V11.8262Z" fill="#D80027"/>
</g>
<defs>
<clipPath id="clip0_954_3705">
<rect width="32" height="32" fill="white"/>
</clipPath>
</defs>
</svg>

<svg viewBox="0 0 32 32" fill="none" xmlns="http://www.w3.org/2000/svg">
    <g clip-path="url(#clip0_954_3705)">
        <path d="M16 32c8.837 0 16-7.163 16-16S24.837 0 16 0 0 7.163 0 16s7.163 16 16 16z" fill="#F0F0F0"/>
        <path d="M3.308 6.259A15.942 15.942 0 00.55 11.826h8.324L3.308 6.26z" fill="#0052B4"/>
        <path d="M31.449 11.826a15.943 15.943 0 00-2.756-5.567l-5.568 5.567h8.324z" fill="#0052B4"/>
        <path d="M.551 20.174a15.943 15.943 0 002.757 5.567l5.567-5.567H.55z" fill="#0052B4"/>
        <path d="M25.741 3.308A15.942 15.942 0 0020.174.55v8.324l5.567-5.567z" fill="#0052B4"/>
        <path d="M6.259 28.692a15.942 15.942 0 005.567 2.757v-8.324l-5.567 5.567z" fill="#0052B4"/>
        <path d="M11.826.551a15.943 15.943 0 00-5.567 2.756l5.567 5.568V.55z" fill="#0052B4"/>
        <path d="M20.174 31.449a15.94 15.94 0 005.567-2.757l-5.567-5.567v8.324z" fill="#0052B4"/>
        <path d="M23.125 20.174l5.568 5.567a15.943 15.943 0 002.756-5.567h-8.324z" fill="#0052B4"/>
        <path d="M31.865 13.913H18.087V.135a16.16 16.16 0 00-4.174 0v13.778H.135a16.16 16.16 0 000 4.174h13.778v13.778a16.166 16.166 0 004.174 0V18.087h13.778a16.166 16.166 0 000-4.174z" fill="#D80027"/>
        <path d="M20.174 20.174l7.14 7.14c.328-.329.641-.672.94-1.027l-6.113-6.113h-1.967z" fill="#D80027"/>
        <path d="M11.826 20.174l-7.14 7.14c.328.328.671.641 1.027.94l6.113-6.113v-1.967z" fill="#D80027"/>
        <path d="M11.826 11.826l-7.14-7.14c-.328.329-.642.672-.94 1.027l6.112 6.113h1.968z" fill="#D80027"/>
        <path d="M20.174 11.826l7.14-7.14a16.017 16.017 0 00-1.027-.94l-6.113 6.113v1.967z" fill="#D80027"/>
    </g>
    <defs>
        <clipPath id="clip0_954_3705">
            <path fill="#fff" d="M0 0h32v32H0z"/>
        </clipPath>
    </defs>
</svg>
